X: 20931
M: 2/4
L: 1/16
K: F
V: 1 name="4"
[|\
(A4 c2)c2 | (A4 c2)c2 | (d2B2) (G2c)B | {c}B3A A4 |\
(A4 c2)c2 | (A4 c2)c2 | d2B2 G2E2 | G2F2 F4 H|]
[|\
f3f f2e2 | (e4 d2)d2 | .g2.f2 .e2.d2 | .c2.B2 .A2"^D.C.".G2 :|


